www/assets/icons/energy_savings_leaf.svg

<svg xmlns="http://www.w3.org/2000/svg" width="24" height="24" viewBox="0 0 24 24" fill='currentColor'><path d="M12 3c-4.8 0-9 3.86-9 9 0 2.12.74 4.07 1.97 5.61L3 19.59 4.41 21l1.97-1.97A9 9 0 0 0 12 21c2.3 0 4.61-.88 6.36-2.64A8.95 8.95 0 0 0 21 12V3zm3.83 9.26-5.16 4.63c-.16.15-.41.14-.56-.01a.4.4 0 0 1-.04-.52l2.44-3.33-4.05-.4a.514.514 0 0 1-.3-.89l5.16-4.63c.16-.15.41-.14.56.01.14.14.16.36.04.52l-2.44 3.33 4.05.4c.45.04.63.59.3.89"/></svg>

<svg width="24" height="24" viewBox="0 0 24 24" xmlns="http://www.w3.org/2000/svg" fill='currentColor'><path d="M12 3C7.2 3 3 6.86 3 12C3 14.12 3.74 16.07 4.97 17.61L3 19.59L4.41 21L6.38 19.03C7.93 20.26 9.88 21 12 21C14.3 21 16.61 20.12 18.36 18.36C20.12 16.61 21 14.3 21 12V3H12ZM15.83 12.26L10.67 16.89C10.51 17.04 10.26 17.03 10.11 16.88C9.97 16.74 9.95 16.52 10.07 16.36L12.51 13.03L8.46 12.63C8.02 12.59 7.83 12.04 8.16 11.74L13.32 7.11C13.48 6.96 13.73 6.97 13.88 7.12C14.02 7.26 14.04 7.48 13.92 7.64L11.48 10.97L15.53 11.37C15.98 11.41 16.16 11.96 15.83 12.26Z"/></svg>
